X:1
T:Bridge Town
T:Transcribed from Wyeth's Repository, Part Second, 1820.
T:G Major                  Elkanah Dare, 1813
T:Philip Doddridge, 1755 Salvartion by Grace                     66. 86. (S. M.)
%%score [ 1 2 3 4 ]
L:1/8
Q:1/4=120
M:4/4
K:G
V:1 treble nm="Tr." snm="Tr."
V:2 treble nm="A." snm="A."
V:3 treble-8 nm="T." snm="T."
V:4 bass nm="B." snm="B."
V:1
"_1.   Grace!  'tis a charming sound!  Harmonious to the ear!                                                              Heaven  with the echo  shall  resound, And all the earth  shall  hear,    And  all       the earth shall hear.\n2.   Grace  first  contrived  a  way    To save rebellious man,                                                              And all the steps that grace display,  Which drew the wondrous plan,  Which  drew the  wondrous plan.\n3. Grace taught my wand'ring feet To tread the heav'nly road;                                                           And  new supplies each hour I meet  While pressing  on   to     God,   While pres – sing   on  to     God.\n4. Grace all the work shall crown,  Through everlasting days;                                                             It   lays in heav'n the topmost stone   And  well  deserves the praise,   And  well    deserves  the  praise." B8 | %1
 B2 B2 d2 d2 | B6 G2 | A2 d2 B2 d2 | d4 z4 |: z8 | z8 | z4 G4 | B2 B2 B2 d2 | B2 dB G4 | G4 e2 e2 | %11
 B2 A2 d4- | d4 d4 | (B2 c2 B2) A2 | G4 [FA]4 | [GB]8 :| %16
V:2
"_1.   Grace!  'tis a charming sound!  Harmonious to the ear!                                                                                                                           And all the earth  shall  hear,    And  all        the earth shall hear.\n2.   Grace  first  contrived  a  way    To save rebellious man,                                                                                                                        Which drew the wondrous plan,  Which  drew the  wondrous plan.\n3. Grace taught my wand'ring feet To tread the heav'nly road;                                                                                                                     While pressing  on   to     God,   While pres – sing   on  to     God.\n4. Grace all the work shall crown,  Through everlasting days;                                                                                                                        And well deserves the praise,    And   well     deserves  the  praise." D8 | %1
 D2 D2 D2 B,2 | D6 G2 | E2 D2 D2 F2 | G4 z4 |: z8 | z8 | z8 | z8 | z8 | B,4 E2 E2 | D2 C2 D4- | %12
 D4 B,4 | G6 E2 | D4 D4 | D8 :| %16
V:3
"_1.   Grace!  'tis a charming sound!  Harmonious to the ear!                                      Heaven  with the  echo  shall  resound, __________     And all the earth  shall  hear,    And  all        the earth shall hear.\n2.   Grace  first  contrived  a  way    To save rebellious man,                                      And       all the steps that grace display, _________   Which drew the wondrous plan,  Which  drew the  wondrous plan.\n3. Grace taught my wand'ring feet To tread the heav'nly road;                                  And      new supplies each hour I meet __________   While pressing  on   to      God,   While pres – sing   on  to     God.\n4. Grace all the work shall crown,  Through everlasting days;                                     It        lays in heav'n the topmost stone _________    And well deserves the praise,    And   well     deserves  the  praise." G8 | %1
 G2 B2 A2 GB | d6 e2 | e2 d2 B2 dB | G4 z4 |: z8 | z4 G4 | d2 d2 d2 e2 | d2 dB d4- | d8 | %10
 B4 A2 G2 | GB dB A4- | A4 G4 | (B2 e2 d2) c2 | B4 A4 | G8 :| %16
V:4
"________________________________________________________________________\nRe-arranged by William Walker in \nSouthern and Western Pocket Harmonist\n,  1846,\n   and by William Hauser in The Hesperian Harp in 1848." G,8 | %1
 G,2 G,2 F,2 E,2 | D,6 G,2 | A,2 B,2 D,2 D,2 | G,4 z4 |: %5
"_1. Heaven with the echo shall resound, _____________________________\n2. And all the steps that grace display,  _____________________________ \n3. And new supplies each hour I meet ______________________________\n4. It lays in heaven the topmost stone ______________________________" G,4 G,2 G,2 | %6
 E,2 E,2 D,2 E,F, | G,8- | G,8- | G,8 | E,4 A,2 B,2 | G,2 A,2 D,4- | D,4 G,4 | (E,2 D,2 B,,2) C,2 | %14
 D,4 D,4 | G,,8 :| %16

